public/icons/dashboard.svg

<svg xmlns="http://www.w3.org/2000/svg" width="20" height="20" viewBox="0 0 20 20" fill="none">
  <path d="M15.8333 2.5H4.16667C3.25 2.5 2.5 3.25 2.5 4.16667V15.8333C2.5 16.75 3.25 17.5 4.16667 17.5H15.8333C16.75 17.5 17.5 16.75 17.5 15.8333V4.16667C17.5 3.25 16.75 2.5 15.8333 2.5ZM4.16667 15.8333V4.16667H9.16667V15.8333H4.16667ZM15.8333 15.8333H10.8333V10H15.8333V15.8333ZM15.8333 8.33333H10.8333V4.16667H15.8333V8.33333Z" fill="#686A73"/>
</svg>

<svg xmlns="http://www.w3.org/2000/svg" width="20" height="20" fill="currentColor" viewBox="0 0 20 20">
  <path d="M15.833 2.5H4.167C3.25 2.5 2.5 3.25 2.5 4.167v11.666c0 .917.75 1.667 1.667 1.667h11.666c.917 0 1.667-.75 1.667-1.667V4.167c0-.917-.75-1.667-1.667-1.667ZM4.167 15.833V4.167h5v11.666h-5Zm11.666 0h-5V10h5v5.833Zm0-7.5h-5V4.167h5v4.166Z"/>
</svg>
